source/img/logo/cat-slim.svg

<svg width="200" height="211" viewBox="0 0 200 211" fill="none" xmlns="http://www.w3.org/2000/svg">
<circle cx="100" cy="111" r="100" fill="#68B738"/>
<g clip-path="url(#clip0_2403_755)">
<path d="M139.68 0H138.92C137.636 0.725875 136.614 1.83883 136 3.18C134.875 5.34423 134.009 7.63331 133.42 10C133.294 10.7116 132.934 11.3611 132.398 11.8462C131.863 12.3313 131.181 12.6246 130.46 12.68C128.256 13.06 126.167 13.9386 124.355 15.2489C122.542 16.5591 121.052 18.2663 120 20.24C118.553 22.8026 117.316 25.478 116.3 28.24C113.46 35.6 111.28 43.2 108.6 50.62C107.34 54 107.28 54 103.48 54C98.94 54 99.26 53.3 99.2 58.3C99.2 59.88 99.68 60.68 101.36 60.6C101.88 60.6 102.66 60.34 102.86 61.02C103.06 61.7 102.38 62 101.98 62.4C99.6086 64.8073 96.6075 66.4984 93.32 67.28C89.52 68.3 85.64 69.1 81.94 70.34C72.44 73.52 63.66 77.96 56.82 85.48C52.8206 90.1507 49.6177 95.4483 47.34 101.16C40 118.44 36.44 136.64 33.68 155.02C32.38 163.64 31.46 172.3 30.76 181.02C30.4 185.3 30 189.64 30 194H96.66C96.7707 193.12 96.6102 192.227 96.2 191.44C95.5589 189.844 94.5171 188.441 93.1753 187.365C91.8335 186.29 90.237 185.578 88.54 185.3C87.14 184.98 86.98 184.56 87.84 183.46C89.2427 181.588 90.318 179.492 91.02 177.26C94.28 167.64 95.54 157.6 97.12 147.66C98.0125 140.068 100.348 132.716 104 126C106.849 121.057 110.649 116.727 115.18 113.26C116.84 112 116.9 112 117.18 114.14C117.38 115.56 117.42 117.02 117.52 118.46C118.12 127.909 118 137.39 117.16 146.82C116.405 154.13 116.304 161.492 116.86 168.82C117.655 177.327 119.174 185.751 121.4 194H148C147.653 191.835 146.656 189.826 145.142 188.241C143.627 186.655 141.667 185.567 139.52 185.12C137.013 184.722 134.45 184.858 132 185.52C130.8 185.8 130.3 185.52 130.2 184.22C129.373 173.632 130.046 162.98 132.2 152.58C134.868 140.574 136.91 128.438 138.32 116.22C138.845 111.286 140.398 106.517 142.88 102.22C145.26 97.98 147.34 93.58 149.68 89.32C150.609 87.771 151.168 86.0286 151.314 84.2282C151.46 82.4279 151.188 80.6182 150.52 78.94C149.98 77.52 149.46 76.08 148.8 74.72C146.8 70.82 144.8 66.96 142.96 63.02C141.98 61.02 142.2 60.78 144.38 60.72C147.64 60.72 147.64 60.72 147.7 57.44C147.7 57 147.7 56.56 147.7 56.12C147.7 54.74 147.18 53.98 145.7 54.12C144.7 54.12 143.7 54.12 142.66 54.12C141.28 54.12 140.88 53.54 141.22 52.12C141.895 49.8116 143.222 47.7473 145.042 46.1755C146.862 44.6037 149.098 43.5912 151.48 43.26C155.911 42.8758 160.376 43.1657 164.72 44.12C165.221 44.2779 165.765 44.2322 166.232 43.9927C166.7 43.7531 167.055 43.3391 167.22 42.84C168.02 40.84 168.9 38.84 169.8 36.84C170.004 36.4852 170.094 36.0763 170.058 35.6686C170.023 35.2608 169.863 34.8739 169.6 34.56C163.2 26.44 156.26 18.86 146.8 14C146.343 13.8033 145.942 13.4952 145.635 13.1039C145.328 12.7127 145.123 12.2506 145.04 11.76C144.505 8.90102 143.653 6.11051 142.5 3.44C141.959 2.01723 140.969 0.809563 139.68 0V0Z" fill="black"/>
</g>
<defs>
<clipPath id="clip0_2403_755">
<rect width="140" height="194" fill="white" transform="translate(30)"/>
</clipPath>
</defs>
</svg>

<svg width="200" height="211" fill="none" xmlns="http://www.w3.org/2000/svg"><circle cx="100" cy="111" r="100" fill="#68B738"/><g clip-path="url(#a)"><path d="M139.7 0h-.8a7 7 0 0 0-2.9 3.2 31 31 0 0 0-2.6 6.8 3.3 3.3 0 0 1-3 2.7 14.7 14.7 0 0 0-10.4 7.5 54.6 54.6 0 0 0-3.7 8c-2.8 7.4-5 15-7.7 22.4-1.3 3.4-1.3 3.4-5.1 3.4-4.6 0-4.2-.7-4.3 4.3 0 1.6.5 2.4 2.2 2.3.5 0 1.3-.3 1.5.4.2.7-.5 1-1 1.4a18 18 0 0 1-8.6 4.9c-3.8 1-7.7 1.8-11.4 3a57.3 57.3 0 0 0-25 15.2 56 56 0 0 0-9.6 15.7A219.4 219.4 0 0 0 33.7 155c-1.3 8.6-2.2 17.3-3 26-.3 4.3-.7 8.6-.7 13h66.7c0-.9 0-1.8-.5-2.6a10 10 0 0 0-7.7-6.1c-1.4-.3-1.5-.7-.7-1.8 1.4-2 2.5-4 3.2-6.2 3.3-9.7 4.5-19.7 6.1-29.6A60 60 0 0 1 104 126c2.8-5 6.6-9.3 11.2-12.7 1.6-1.3 1.7-1.3 2 .8l.3 4.4c.6 9.4.5 18.9-.3 28.3a123.3 123.3 0 0 0 4.2 47.2H148a10.8 10.8 0 0 0-8.5-8.9 18 18 0 0 0-7.5.4c-1.2.3-1.7 0-1.8-1.3-.8-10.6-.2-21.2 2-31.6 2.7-12 4.7-24.2 6.1-36.4.5-5 2.1-9.7 4.6-14 2.4-4.2 4.4-8.6 6.8-12.9a11.7 11.7 0 0 0 .8-10.4c-.5-1.4-1-2.8-1.7-4.2-2-3.9-4-7.7-5.8-11.7-1-2-.8-2.2 1.4-2.3 3.2 0 3.2 0 3.3-3.3v-1.3c0-1.4-.5-2.1-2-2h-3c-1.4 0-1.8-.6-1.5-2a12.5 12.5 0 0 1 10.3-8.8 44 44 0 0 1 13.2.8 2 2 0 0 0 2.5-1.3l2.6-6a2 2 0 0 0-.2-2.2 71.1 71.1 0 0 0-24-21.5 3 3 0 0 1-.6-1.3c-.5-2.9-1.3-5.7-2.5-8.4a7 7 0 0 0-2.8-3.4Z" fill="#000"/></g><defs><clipPath id="a"><path fill="#fff" transform="translate(30)" d="M0 0h140v194H0z"/></clipPath></defs></svg>
